X:1
T:Christus Resurrexit Hodie
T:Christus Resurrexit Hodie
T:S J Shaw
T:Trad
T:Copyright © 2018 by Simon J Shaw All Rights Reserved
T:Copyright © 2018 by Simon J Shaw All Rights Reserved
T:Copyright © 2018 by Simon J Shaw All Rights Reserved
C:S J Shaw
Z:Copyright © 2018 by Simon J Shaw
Z:All Rights Reserved
%%score 1 2 3 4
L:1/8
Q:1/4=80
M:2/4
K:D
V:1 treble 
V:2 treble 
V:3 bass 
V:4 bass 
V:1
 z4 | z4 |!f! FE FD | EA A2 | d>d c2 | B>B A2 | GG F/G/A | E2 A2 |!mf! FE FD | EA A2 |!f! AA AB | %11
 dc/B/ c2 | d>d cA | B>B AF | BA GF | (E3 D) | D3 z |"^poco allarg." D>D EF |!ff! dd e>e | %19
 !>!f!>!f z2 |] %20
V:2
 z4 | z4 | DA, DB, | E2 E2 | G>E F2 | (FE/)E/ ED | DC CC |!>(! E2 E2!>)! | FE FD | EA A2 | DA, DF | %11
w: ||||||||Chris- tus res- ur-|rex- it, *||
 E2 E2 | G>E FF | (FE/)E/ ED | EF D/C/D | D2 CA, | A,3 z | D>D EF | AA B>B | [Ad][Ad] z2 |] %20
w: |||||||||
V:3
!mf! F,E, F,D, | E,A, A,2 |!f! A,A, A,B, | DC/B,/ C2 | (FE/)E/ ED | (DC/)C/ CD | B,A, A,A, | %7
w: Chris- tus re- sur-|rex- * it,|Chris- tus re- sur-|rex- * * it|Ho- * di- e, *|ho- * di- e *|Chris- tus re- sur-|
 DC/B,/ C2 | z4 | z4 |!f! F,E, F,D, | E,A, A,2 | (FE/)E/ ED | (DC/)C/ CD | D/C/D B,/G,/A, | %15
w: rex- * * it.|||Chris- tus re- sur-|rex- * it|Al- * le- lu- ia!|Al- * le- lu- ia!|Chris- * tus re- * sur-|
 (A,2 E,G,) | F,3 z |!<(! F,>F, A,!<)!D |!ff! FF G>G | [FA][FA] z2 |] %20
w: rex- * *|it.|Al- le- lu- ia!|Christ- tus re- sur-|rex- it!|
V:4
 F,E, F,D, | E,A, A,2 | D,C, D,F, | A,2 A,2 | B,>B, A,2 | G,>G, F,2 | E,A,, D,/E,/F, | A,2 A,2 | %8
 z4 | z4 | D,C, D,B,, | A,,2 A,2 | B,>B, A,F, | G,>G, F,D, | G,F, E,D, | A,,4 | D,3 z | F,>F, A,D | %18
 DD =C>A, | !>![D,D]!>![D,D] z2 |] %20

